!!!id: BC101
!!!page: 126-127
!!!COM: GOUBLIER, Gustave
!!!LYR: BOREL, F. et S.
!!!PTL@@FR: Les 100 plus belles chansons
!!!OTL@@FR: Le crédo du Paysan
!!!PUB: La Bonne Chanson, inc.
!!!YEM: On ne peut reproduire, enregistrer ou diffuser en tout ou en partie le présent ouvrage, sous quelque procédé que ce soit, électronique, mécanique, photographique, sonore, magnétique ou autre, sans avoir obtenu au préalable l'autorisation écrite de l'éditrice.
!!!PDT: 2011
!!!SMA:2012 Bibliothèque nationale du Québec; Biblothèque nationale du Canada
!!!AGN-Laforte:
!!!AGN-type:
!!!AGN-rime: 
**kern	**dynam
*clefG2	*
*D:	*
!!LO:TX:a:t=Très posé et très contemplatif
*M12/8	*
8g	.
4g	.
8g	.
=1	=1
[2.g	.
8g]	.
8g	.
8f#	.
8g	.
8b	.
8a	.
!!LO:PB:g=original
=2	=2
4.a	.
[4.g	.
4g]	.
8g	.
4g	.
8g	.
=3	=3
[2.g	.
8g]	.
8g	.
8a	.
8b	.
8a	.
8e	.
!!LO:PB:g=original
=4	=4
[2.g	.
8g]	.
8r	.
8g	.
4g	.
8g	.
=5	=5
[2.g	.
8g]	.
8g	.
8f#	.
8g	.
8b	.
8a	.
!!LO:PB:g=original
=6	=6
4.a	.
[4.g	.
4g]	.
8g	.
4g	.
8a	.
=7	=7
[2.b	.
8b]	.
8a#	.
8b	.
8cc;	.
8b	.
8d#	.
!!LO:PB:g=original
=8	=8
[2.e	.
8e]	.
8r	.
8g	.
4a	.
8g	.
=9	=9
[2.g	.
8g]	.
8d	.
8e	.
8f#	.
8g	.
8a	.
!!LO:PB:g=original
=10	=10
[2.g	.
4g]	.
8g	.
4a	.
8g	.
=11	=11
[2.g	.
8g]	.
8a	.
8g	.
8f#	.
8d	.
8d#	.
!!LO:PB:g=original
=12	=12
[2.e	.
4e]	.
8e	.
4f#	.
8e	.
=13	=13
[2.b	.
8b]	.
8e	.
8f#	.
8g#	.
8a	.
8b	.
!!LO:PB:g=original
=14	=14
(2.cc	.
4a)	.
8a	.
4b	.
8cc	.
=15	=15
[4.dd	.
4dd]	.
8dd	.
4.ee;	.
8dd	.
8cc	.
8a	.
!!LO:PB:g=original
=16	=16
[2.g	.
[4g]	.
8g]	.
4r	.
8r	.
=17||	=17||
4.cc	p
4b	.
8a	.
[4.g	.
4.g]	.
!!LO:PB:g=original
=18	=18
4a	.
8a	.
8g	.
8f	.
8e	.
(4.g	.
4.d)	.
=19	=19
8r	.
8d	.
8e	.
8f	.
8g	.
8a	.
[2.g	.
!!LO:PB:g=original
=20	=20
8g]	.
8a	.
8g	.
8a	.
8g	.
8a	.
[4.b	.
[4b]	.
8b]	.
=21	=21
4.cc	f
4b	.
8a	.
[4.g	.
4g]	.
8e	.
!!LO:PB:g=original
=22	=22
4.a	.
8g	.
8f	.
8e	.
4.b-	.
[4a	.
8a]	.
=23	=23
8r	.
8a	.
8g#	.
8a	.
8cc;	.
8a	.
2.g#	.
=24	=24
8r	.
8f	pp
8e	.
8f	.
8b;	.
8f	.
2.e	.
!!LO:PB:g=original
=25	=25
8r	.
8d^	.
8e^	.
8f^	.
8g^	.
8a^	.
[4.g	.
4g]	.
8cc	.
=26	=26
[4.ee	.
4ee]	.
8cc	.
[4.dd	.
!!LO:TX:a:i:t=rall.
4dd]	.
8g	.
=27	=27
[2.cc	.
4cc]	.
==	==
*-	*-
!!!EED: Isaac Howie
!!!EEV: 2025/Aug/12
